X: 1438
T: Four Corners
C:Tchaikovsky
B: australian traditional tunes wiki
M:4/4
L:1/8
R: March
Q: 1/4=100
K:G
V:1 
Bc^c |"G" d2 d3/2d1/2 dd eB |"G" d4-d Bc^c |"G" d2 d3/2d1/2 dd ge |"D7" f4-f AAB |"Am" c3B "D" dA AB |
"Am" c3d "C" eB dc |1"D" a1/2z g1/2 fe de cd |"G" B4z:|2"D" a1/2 z g1/2 fe de fa |"G" g4-g ||
% abcbook-tune_id 6342d53aa8f2d6e16e6d49a9


% abcbook-boost 0
% abcbook-tablature 
% abcbook-transpose 
% abcbook-lastupdated 1665324365083
% abcbook-soundfonts 
% abcbook-repeats 1
% NFF Book 2006

